packages/blockchain-info-components/src/Images/img/percent-white-circle.svg

<svg fill="none" height="25" viewBox="0 0 25 25" width="25" xmlns="http://www.w3.org/2000/svg"><circle cx="12.6875" cy="12.4999" fill="#fff" r="12"/><path clip-rule="evenodd" d="m8.9375 9.68738c.51777 0 .9375-.41974.9375-.9375 0-.51777-.41973-.9375-.9375-.9375s-.9375.41973-.9375.9375c0 .51776.41973.9375.9375.9375zm0 1.56252c1.3807 0 2.5-1.1193 2.5-2.50002 0-1.38071-1.1193-2.5-2.5-2.5-1.38071 0-2.5 1.11929-2.5 2.5 0 1.38072 1.11929 2.50002 2.5 2.50002zm9.4993-4.04985-.243-.24307c-.3906-.39052-1.0237-.39052-1.4143 0l-9.63429 9.63432c-.39052.3905-.39052 1.0237 0 1.4142l.24307.2431c.39052.3905 1.02369.3905 1.41421 0l9.63431-9.63433c.3905-.39053.3905-1.02369 0-1.41422zm-1.0618 9.04985c0 .5177-.4197.9375-.9375.9375s-.9375-.4198-.9375-.9375c0-.5178.4197-.9375.9375-.9375s.9375.4197.9375.9375zm1.5625 0c0 1.3807-1.1193 2.5-2.5 2.5s-2.5-1.1193-2.5-2.5 1.1193-2.5 2.5-2.5 2.5 1.1193 2.5 2.5z" fill="#0c6cf2" fill-rule="evenodd"/></svg>

<svg width="25" height="25" viewBox="0 0 25 25" fill="none" xmlns="http://www.w3.org/2000/svg">
<circle cx="12.6875" cy="12.4999" r="12" fill="white"/>
<path fill-rule="evenodd" clip-rule="evenodd" d="M8.9375 9.68738C9.45527 9.68738 9.875 9.26764 9.875 8.74988C9.875 8.23211 9.45527 7.81238 8.9375 7.81238C8.41973 7.81238 8 8.23211 8 8.74988C8 9.26764 8.41973 9.68738 8.9375 9.68738ZM8.9375 11.2499C10.3182 11.2499 11.4375 10.1306 11.4375 8.74988C11.4375 7.36917 10.3182 6.24988 8.9375 6.24988C7.55679 6.24988 6.4375 7.36917 6.4375 8.74988C6.4375 10.1306 7.55679 11.2499 8.9375 11.2499ZM18.4368 7.20005L18.1938 6.95698C17.8032 6.56646 17.1701 6.56646 16.7795 6.95698L7.14521 16.5913C6.75469 16.9818 6.75469 17.615 7.14521 18.0055L7.38828 18.2486C7.7788 18.6391 8.41197 18.6391 8.80249 18.2486L18.4368 8.61427C18.8273 8.22374 18.8273 7.59058 18.4368 7.20005ZM17.375 16.2499C17.375 16.7676 16.9553 17.1874 16.4375 17.1874C15.9197 17.1874 15.5 16.7676 15.5 16.2499C15.5 15.7321 15.9197 15.3124 16.4375 15.3124C16.9553 15.3124 17.375 15.7321 17.375 16.2499ZM18.9375 16.2499C18.9375 17.6306 17.8182 18.7499 16.4375 18.7499C15.0568 18.7499 13.9375 17.6306 13.9375 16.2499C13.9375 14.8692 15.0568 13.7499 16.4375 13.7499C17.8182 13.7499 18.9375 14.8692 18.9375 16.2499Z" fill="#0C6CF2"/>
</svg>
